app/dist/common/images/harrow-health-11875-senior-notes-due-2027.svg

<svg height="18" viewBox="0 0 18 18" width="18" xmlns="http://www.w3.org/2000/svg"><path d="m0 0h18v18h-18z" fill="#f0f3fa"/><path d="m13 4.56-4-1.56-4 1.56v8.88l4 1.56 4-1.56z" fill="#00263a"/><path d="m8 5.57-1-.57-1 .57v6.86l1 .57 1-.57v-2.86l2-1.14v-1.63l-2 1.15zm3-.57 1 .57v6.86l-1 .57-1-.57v-6.86z" fill="#367493"/><g fill="#fff"><path d="m7 10.14v1.82l1 .47v-2.86zm5-4.57v6.86l-.98.57-.02-.01v-6.85zm-5-.57v3.43l1-.46v-2.4z"/><path d="m11 7.86-3 1.71-.06 1.12 3.06-1.69z"/></g></svg>

<!-- by TradingView --><svg width="18" height="18" viewBox="0 0 18 18" xmlns="http://www.w3.org/2000/svg"><path fill="#F0F3FA" d="M0 0h18v18H0z"/><path d="M13 4.56 9 3 5 4.56v8.88L9 15l4-1.56V4.56Z" fill="#00263A"/><path d="M8 5.57 7 5l-1 .57v6.86L7 13l1-.57V9.57l2-1.14V6.8L8 7.95V5.57ZM11 5l1 .57v6.86L11 13l-1-.57V5.57L11 5Z" fill="#367493"/><path d="M7 10.14v1.82l1 .47V9.57l-1 .57ZM12 5.57v6.86l-.98.57-.02-.01V6.14l1-.57ZM7 5v3.43l1-.46v-2.4L7 5Z" fill="#fff"/><path d="M11 7.86 8 9.57l-.06 1.12L11 9V7.86Z" fill="#fff"/></svg>
